X:1181
T:Barlow Knife
T:Cabin Creek
M:2/4
L:1/16
R:Breakdown
Z:<cfalt@trytel.com> www.trytel.com/~cfalt/Fiddle/CFtunes1.abc
K:D
"D"d2d2 cdec|d2d2 A4|d2d2 cBcA|"G"B2A2 "D"A4:|!
|:"D"B2A2 FED2|B2A2 F4|B2A2 FED2|"A7"E2D2 "D"D4:|!
|:"A7"E2EE "D"F2D2|"A7"EDEG "D"FED2|\
"A7"E2EE "D"F2D2|"A7"ABAG "D"FED2:|]
%W:I been livin' here all my life, All I got is a Barlow Knife; (bis)
%W:Buck horn handle and a barlow blade, Best dang knife that ever was made. (bis)
